public/static/images/common/feat-5.svg

<svg width="40" height="40" fill="none" xmlns="http://www.w3.org/2000/svg"><g stroke-width="2" stroke-miterlimit="10" stroke-linecap="round" stroke-linejoin="round"><path d="M13.125 11.375c1.5-4 6.5-7 12.25-7 7.125 0 12.75 4.375 12.75 9.625 0 2.5-1.25 4.875-3.375 6.5 1 1.25 2.375 2.125 4 2.625-1.125.625-2.375.875-3.75.875-1.625 0-3.125-.5-4.375-1.25" stroke="#EA4D45"/><path d="M27.375 25.5c0 5.375-5.75 9.625-12.75 9.625-1.875 0-3.625-.25-5.125-.75-1.25.75-2.75 1.25-4.375 1.25-1.375 0-2.625-.375-3.75-.875 1.625-.5 2.875-1.375 4-2.625-2.125-1.75-3.375-4-3.375-6.5C2 20.25 7.75 16 14.75 16s12.625 4.25 12.625 9.5zm-17.75-1.375H19m-9.375 4.25h4.75" stroke="#1C1C1C"/></g></svg>

<svg width="40" height="40" viewBox="0 0 40 40" fill="none" xmlns="http://www.w3.org/2000/svg">
<g id="fi_10185063">
<g id="Group">
<path id="Vector" d="M13.125 11.375C14.625 7.375 19.625 4.375 25.375 4.375C32.5 4.375 38.125 8.75 38.125 14C38.125 16.5 36.875 18.875 34.75 20.5C35.75 21.75 37.125 22.625 38.75 23.125C37.625 23.75 36.375 24 35 24C33.375 24 31.875 23.5 30.625 22.75" stroke="#EA4D45" stroke-width="2" stroke-miterlimit="10" stroke-linecap="round" stroke-linejoin="round"/>
<g id="Group_2">
<path id="Vector_2" d="M27.375 25.5C27.375 30.875 21.625 35.125 14.625 35.125C12.75 35.125 11 34.875 9.5 34.375C8.25 35.125 6.75 35.625 5.125 35.625C3.75 35.625 2.5 35.25 1.375 34.75C3 34.25 4.25 33.375 5.375 32.125C3.25 30.375 2 28.125 2 25.625C2 20.25 7.75 16 14.75 16C21.75 16 27.375 20.25 27.375 25.5Z" stroke="#1C1C1C" stroke-width="2" stroke-miterlimit="10" stroke-linecap="round" stroke-linejoin="round"/>
<g id="Group_3">
<path id="Vector_3" d="M9.625 24.125H19" stroke="#1C1C1C" stroke-width="2" stroke-miterlimit="10" stroke-linecap="round" stroke-linejoin="round"/>
<path id="Vector_4" d="M9.625 28.375H14.375" stroke="#1C1C1C" stroke-width="2" stroke-miterlimit="10" stroke-linecap="round" stroke-linejoin="round"/>
</g>
</g>
</g>
</g>
</svg>
